X: 96
T:O'Neill's Cavalcade
N: page 32
N: hexatonic
R: March
M:2/4
L:1/16
K:Emin
Q:1/4=60
A\
| "Em"G2g2 "D"f2a2 | "Em"e2g2 gfed |\
"G"B2g2 "Bm"f2a2 | "Em"e2g2 gfed |\
"Em"B2g2 "D"f2a2 | "Em"e2g2 gfed |
"G"B2g2 "Bm" f2a2|"Em"e2g2 gfed| "Em"{^d}e2>e2 "Bm"fe=dB |\
 "Em"{^d}e2>e2 "Bm"fe=dB |\
"Em"e2de "Bm"fedB | "Em"e2de "Bm"fedB |\
"Am"A2AB "G"G2GB |
"Am"A2e2 edBG |\
"Am"A2AB "G"G2FB | "Am"A2e2 edBG |\
"Am"A2A/B/A "G"G2B2| "Am"A2e2 edBG|\
"Am"A2A/B/A "G"G2B2| "Am"A2e2 edB2|
